Costumes/shirt-b.svg

<?xml version="1.0" encoding="UTF-8" standalone="no"?>
<svg
   version="1.1"
   width="76.176041"
   height="107.74298"
   viewBox="5 -1 76.176041 107.74298"
   id="svg10"
   sodipodi:docname="shirt-b.svg"
   xmlns:inkscape="http://www.inkscape.org/namespaces/inkscape"
   xmlns:sodipodi="http://sodipodi.sourceforge.net/DTD/sodipodi-0.dtd"
   xmlns="http://www.w3.org/2000/svg"
   xmlns:svg="http://www.w3.org/2000/svg">
  <defs
     id="defs14" />
  <sodipodi:namedview
     id="namedview12"
     pagecolor="#ffffff"
     bordercolor="#000000"
     borderopacity="0.25"
     inkscape:showpageshadow="2"
     inkscape:pageopacity="0.0"
     inkscape:pagecheckerboard="0"
     inkscape:deskcolor="#d1d1d1" />
  <!-- Exported by Scratch - http://scratch.mit.edu/ -->
  <g
     id="ID0.543725757393986"
     transform="translate(-2.2449194,-1.9196724)">
    <g
       id="ID0.08513205265626311">
      <path
         id="ID0.8950433996506035"
         fill="#ff0000"
         stroke="#000000"
         stroke-width="1"
         stroke-linecap="round"
         d="m 83,255.75 c 3.335,0.075 5.666,4.558 6.4,7.85 1.266,5.671 -0.277,11.614 -0.5,17.4 -0.21,2.642 -0.579,5.266 -0.8,7.9 -0.315,3.795 -0.908,7.479 -1.05,11.2 -0.026,2.673 0.496,5.297 0.55,7.95 0.071,3.631 -0.121,6.974 -0.05,10.45 0.043,1.952 2.152,4.541 0.85,6.05 -2.073,1.954 -5.678,1.625 -8.4,1.7 -0.682,0.019 -0.528,-1.11 -0.5,-1.7 0.111,-2.232 0.705,-4.385 0.35,-6.55 -0.481,-7.052 -1.751,-14.029 -2.85,-21 -0.734,-4.656 -1.899,-9.34 -2.1,-14 -0.016,-6.673 -0.351,-13.604 1.45,-19.85 0.917,-3.183 3.383,-7.472 6.65,-7.4 z"
         transform="matrix(-1.2398585,0.25044781,0.24868628,1.3734828,100.35,-366.8)" />
    </g>
    <path
       id="ID0.8537395023740828"
       fill="#ffffff"
       stroke="#000000"
       stroke-width="2"
       stroke-linecap="round"
       d="m 151,68.45 c 10.471,-3.946 26.703,-4.937 33.5,4 8.347,10.977 0.218,27.643 1.1,41.4 0.175,3.454 1.556,4.91 1.9,7.45 0.321,2.376 0.046,3.058 0,7.2 -0.36,10.078 -0.96,20.179 -1.5,30.25 -0.568,10.674 -0.213,20.872 -2,30.85 -0.435,2.8 -1.79,-0.267 -3.25,-0.65 -5.249,-1.277 -10.634,-2.415 -16,-2.95 -8.714,-0.869 -17.516,-0.936 -26.25,-1.6 -2.183,-0.166 -2.962,1.912 -3.15,-0.2 -0.75,-8.449 0.353,-16.92 1.15,-25.45 1.253,-13.415 3.762,-26.734 5,-40.15 0.93,-10.074 -0.392,-20.476 1.5,-30.45 1.326,-6.979 1.342,-17.165 8,-19.7 z"
       transform="matrix(-0.85737497,0,0,0.77333736,186.95,-49)" />
    <g
       id="g7">
      <path
         id="path5"
         fill="#ff0000"
         stroke="#000000"
         stroke-width="1"
         stroke-linecap="round"
         d="m 83,255.75 c 3.335,0.075 5.666,4.558 6.4,7.85 1.266,5.671 -0.277,11.614 -0.5,17.4 -0.21,2.642 -0.579,5.266 -0.8,7.9 -0.315,3.795 -0.908,7.479 -1.05,11.2 -0.026,2.673 0.273,5.339 0.55,7.95 0.519,5.142 1.237,10.156 2.05,15.4 0.203,1.311 1.096,1.006 0.4,1.25 -3.317,0.915 -6.765,1.59 -10.05,1.55 -0.82,-0.014 -0.203,0.043 -0.5,-1.7 -0.937,-6.966 -1.823,-13.981 -2.7,-20.95 -0.929,-7.381 -2.258,-14.089 -2.5,-22.2 -0.166,-6.105 0.092,-12.466 2.05,-18.25 1.07,-3.145 3.383,-7.472 6.65,-7.4 z"
         transform="matrix(1.2398585,0.26260346,-0.24868628,1.4401456,-9.65,-383.65)" />
    </g>
  </g>
</svg>

<svg version="1.1" width="79" height="110" viewBox="5 -1 79 110" xmlns="http://www.w3.org/2000/svg" xmlns:xlink="http://www.w3.org/1999/xlink">
  <!-- Exported by Scratch - http://scratch.mit.edu/ -->
  <g id="ID0.543725757393986">
    <g id="ID0.08513205265626311">
      <path id="ID0.8950433996506035" fill="#FF0000" stroke="#000000" stroke-width="1" stroke-linecap="round" d="M 83 255.750 C 86.335 255.825 88.666 260.308 89.400 263.600 C 90.666 269.271 89.123 275.214 88.900 281 C 88.690 283.642 88.321 286.266 88.100 288.900 C 87.785 292.695 87.192 296.379 87.050 300.100 C 87.024 302.773 87.546 305.397 87.600 308.050 C 87.671 311.681 87.479 315.024 87.550 318.500 C 87.593 320.452 89.702 323.041 88.400 324.550 C 86.327 326.504 82.722 326.175 80 326.250 C 79.318 326.269 79.472 325.140 79.500 324.550 C 79.611 322.318 80.205 320.165 79.850 318 C 79.369 310.948 78.099 303.971 77 297 C 76.266 292.344 75.101 287.660 74.900 283 C 74.884 276.327 74.549 269.396 76.350 263.150 C 77.267 259.967 79.733 255.678 83 255.750 Z " transform="matrix(-1.2398585081100464, 0.2504478096961975, 0.248686283826828, 1.3734828233718872, 100.35, -366.8)"/>
    </g>
    <path id="ID0.8537395023740828" fill="#FFFFFF" stroke="#000000" stroke-width="2" stroke-linecap="round" d="M 151 68.450 C 161.471 64.504 177.703 63.513 184.500 72.450 C 192.847 83.427 184.718 100.093 185.600 113.850 C 185.775 117.304 187.156 118.760 187.500 121.300 C 187.821 123.676 187.546 124.358 187.500 128.500 C 187.140 138.578 186.540 148.679 186 158.750 C 185.432 169.424 185.787 179.622 184 189.600 C 183.565 192.400 182.210 189.333 180.750 188.950 C 175.501 187.673 170.116 186.535 164.750 186 C 156.036 185.131 147.234 185.064 138.500 184.400 C 136.317 184.234 135.538 186.312 135.350 184.200 C 134.600 175.751 135.703 167.280 136.500 158.750 C 137.753 145.335 140.262 132.016 141.500 118.600 C 142.430 108.526 141.108 98.124 143 88.150 C 144.326 81.171 144.342 70.985 151 68.450 Z " transform="matrix(-0.8573749661445618, 0, 0, 0.7733373641967773, 186.95, -49)"/>
    <g id="ID0.08513205265626311">
      <path id="ID0.8950433996506035" fill="#FF0000" stroke="#000000" stroke-width="1" stroke-linecap="round" d="M 83 255.750 C 86.335 255.825 88.666 260.308 89.400 263.600 C 90.666 269.271 89.123 275.214 88.900 281 C 88.690 283.642 88.321 286.266 88.100 288.900 C 87.785 292.695 87.192 296.379 87.050 300.100 C 87.024 302.773 87.323 305.439 87.600 308.050 C 88.119 313.192 88.837 318.206 89.650 323.450 C 89.853 324.761 90.746 324.456 90.050 324.700 C 86.733 325.615 83.285 326.290 80 326.250 C 79.180 326.236 79.797 326.293 79.500 324.550 C 78.563 317.584 77.677 310.569 76.800 303.600 C 75.871 296.219 74.542 289.511 74.300 281.400 C 74.134 275.295 74.392 268.934 76.350 263.150 C 77.420 260.005 79.733 255.678 83 255.750 Z " transform="matrix(1.2398585081100464, 0.2626034617424011, -0.248686283826828, 1.4401456117630005, -9.65, -383.65)"/>
    </g>
  </g>
</svg>
